static/img/github.svg

<?xml version="1.0" encoding="UTF-8" standalone="no"?>
<!-- Created with Inkscape (http://www.inkscape.org/) -->

<svg
   xmlns:dc="http://purl.org/dc/elements/1.1/"
   xmlns:cc="http://creativecommons.org/ns#"
   xmlns:rdf="http://www.w3.org/1999/02/22-rdf-syntax-ns#"
   xmlns:svg="http://www.w3.org/2000/svg"
   xmlns="http://www.w3.org/2000/svg"
   xmlns:sodipodi="http://sodipodi.sourceforge.net/DTD/sodipodi-0.dtd"
   xmlns:inkscape="http://www.inkscape.org/namespaces/inkscape"
   width="103.53758"
   height="28"
   id="svg2"
   version="1.1"
   inkscape:version="0.48.3.1 r9886"
   sodipodi:docname="New document 1">
  <defs
     id="defs4">
    <clipPath
       id="clipPath3012"
       clipPathUnits="userSpaceOnUse">
      <path
         id="path3014"
         d="M 0,576 576,576 576,0 0,0 0,576 z"
         inkscape:connector-curvature="0" />
    </clipPath>
  </defs>
  <sodipodi:namedview
     id="base"
     pagecolor="#ffffff"
     bordercolor="#666666"
     borderopacity="1.0"
     inkscape:pageopacity="0.0"
     inkscape:pageshadow="2"
     inkscape:zoom="2.2986963"
     inkscape:cx="239.25102"
     inkscape:cy="71.744275"
     inkscape:document-units="px"
     inkscape:current-layer="layer1"
     showgrid="false"
     fit-margin-top="0"
     fit-margin-left="0"
     fit-margin-right="0"
     fit-margin-bottom="0"
     inkscape:window-width="1920"
     inkscape:window-height="1011"
     inkscape:window-x="-8"
     inkscape:window-y="1072"
     inkscape:window-maximized="1" />
  <metadata
     id="metadata7">
    <rdf:RDF>
      <cc:Work
         rdf:about="">
        <dc:format>image/svg+xml</dc:format>
        <dc:type
           rdf:resource="http://purl.org/dc/dcmitype/StillImage" />
        <dc:title></dc:title>
      </cc:Work>
    </rdf:RDF>
  </metadata>
  <g
     inkscape:label="Layer 1"
     inkscape:groupmode="layer"
     id="layer1"
     transform="translate(-289.31188,-322.04585)">
    <g
       id="g3883"
       transform="matrix(0.17247486,0,0,0.17247486,239.41285,289.67174)"
       inkscape:export-filename="C:\Program Files\ZWAMP\vdrive\web\enzymeproject\static\img\github.png"
       inkscape:export-xdpi="90"
       inkscape:export-ydpi="90">
      <path
         inkscape:connector-curvature="0"
         d="m 404.93313,257.1871 -50.445,0 c -1.30125,0 -2.3575,1.05625 -2.3575,2.35875 l 0,24.6625 c 0,1.30125 1.05625,2.36125 2.3575,2.36125 l 19.67875,0 0,30.6425 c 0,0 -4.41875,1.50625 -16.635,1.50625 -14.4125,0 -34.54625,-5.26625 -34.54625,-49.54 0,-44.28125 20.965,-50.1075 40.6475,-50.1075 17.0375,0 24.3775,2.99875 29.0475,4.445 1.4675,0.44875 2.825,-1.0125 2.825,-2.31375 l 5.6275,-23.83 c 0,-0.61 -0.20625,-1.34375 -0.90125,-1.84125 -1.89625,-1.35375 -13.4675,-7.8275 -42.7,-7.8275 -33.67625,0 -68.22,14.3275 -68.22,83.2025 0,68.87625 39.55,79.14 72.8775,79.14 27.595,0 44.335,-11.79125 44.335,-11.79125 0.69,-0.38125 0.765,-1.34625 0.765,-1.7875 l 0,-76.92125 c 0,-1.3025 -1.055,-2.35875 -2.35625,-2.35875"
         style="fill:#ffffff;fill-opacity:1;fill-rule:nonzero;stroke:none"
         id="path3018" />
      <path
         inkscape:connector-curvature="0"
         d="m 664.90501,195.95535 c 0,-1.3125 -1.04,-2.37125 -2.34125,-2.37125 l -28.40375,0 c -1.2975,0 -2.3525,1.05875 -2.3525,2.37125 0,0.006 0.008,54.89125 0.008,54.89125 l -44.27375,0 0,-54.89125 c 0,-1.3125 -1.045,-2.37125 -2.34375,-2.37125 l -28.40125,0 c -1.2925,0 -2.34625,1.05875 -2.34625,2.37125 l 0,148.62875 c 0,1.31125 1.05375,2.37875 2.34625,2.37875 l 28.40125,0 c 1.29875,0 2.34375,-1.0675 2.34375,-2.37875 l 0,-63.57375 44.27375,0 c 0,0 -0.0763,63.56875 -0.0763,63.57375 0,1.31125 1.05375,2.37875 2.3525,2.37875 l 28.47,0 c 1.30125,0 2.34125,-1.0675 2.34375,-2.37875 l 0,-148.62875 z"
         style="fill:#ffffff;fill-opacity:1;fill-rule:nonzero;stroke:none"
         id="path3022" />
      <path
         inkscape:connector-curvature="0"
         d="m 458.53175,215.4586 c 0,-10.2275 -8.2,-18.49125 -18.31625,-18.49125 -10.10625,0 -18.3125,8.26375 -18.3125,18.49125 0,10.2175 8.20625,18.505 18.3125,18.505 10.11625,0 18.31625,-8.2875 18.31625,-18.505"
         style="fill:#ffffff;fill-opacity:1;fill-rule:nonzero;stroke:none"
         id="path3026" />
      <path
         inkscape:connector-curvature="0"
         d="m 456.5005,313.23197 0,-68.6075 c 0,-1.3025 -1.05125,-2.3675 -2.35,-2.3675 l -28.31375,0 c -1.29875,0 -2.46125,1.34 -2.46125,2.64125 l 0,98.295 c 0,2.8875 1.8,3.7475 4.13,3.7475 l 25.51,0 c 2.79875,0 3.485,-1.375 3.485,-3.79375 l 0,-29.915 z"
         style="fill:#ffffff;fill-opacity:1;fill-rule:nonzero;stroke:none"
         id="path3030" />
      <path
         inkscape:connector-curvature="0"
         d="m 772.85188,242.4801 -28.18625,0 c -1.2925,0 -2.345,1.06625 -2.345,2.37625 l 0,72.8775 c 0,0 -7.16,5.24 -17.32375,5.24 -10.1625,0 -12.86,-4.6125 -12.86,-14.56375 l 0,-63.55375 c 0,-1.31 -1.05,-2.37625 -2.34375,-2.37625 l -28.60625,0 c -1.29125,0 -2.34875,1.06625 -2.34875,2.37625 l 0,68.36625 c 0,29.5575 16.47375,36.78875 39.13625,36.78875 18.59125,0 33.58125,-10.27 33.58125,-10.27 0,0 0.71375,5.4125 1.03625,6.05375 0.32375,0.64 1.165,1.2875 2.07375,1.2875 l 18.19875,-0.0813 c 1.29125,0 2.34875,-1.06625 2.34875,-2.3725 l -0.009,-99.7725 c 0,-1.31 -1.05375,-2.37625 -2.3525,-2.37625"
         style="fill:#ffffff;fill-opacity:1;fill-rule:nonzero;stroke:none"
         id="path3034" />
      <path
         inkscape:connector-curvature="0"
         d="m 838.771,322.88285 c -9.77625,-0.2975 -16.4075,-4.73375 -16.4075,-4.73375 l 0,-47.0675 c 0,0 6.54125,-4.01 14.5675,-4.7275 10.15,-0.90875 19.93125,2.1575 19.93125,26.37 0,25.5325 -4.415,30.57125 -18.09125,30.15875 m 11.1175,-83.74125 c -16.00875,0 -26.8975,7.1425 -26.8975,7.1425 l 0,-50.32875 c 0,-1.3125 -1.04875,-2.37125 -2.34375,-2.37125 l -28.48375,0 c -1.295,0 -2.3475,1.05875 -2.3475,2.37125 l 0,148.62875 c 0,1.31125 1.0525,2.37875 2.35125,2.37875 l 19.76125,0 c 0.89,0 1.56375,-0.46 2.0625,-1.2625 0.49,-0.79875 1.2,-6.85375 1.2,-6.85375 0,0 11.64625,11.03875 33.69625,11.03875 25.885,0 40.73,-13.13 40.73,-58.94375 0,-45.81375 -23.70875,-51.8 -39.72875,-51.8"
         style="fill:#ffffff;fill-opacity:1;fill-rule:nonzero;stroke:none"
         id="path3038" />
      <path
         inkscape:connector-curvature="0"
         d="m 538.13376,242.24322 -21.30625,0 c 0,0 -0.0312,-28.14125 -0.0312,-28.1475 0,-1.06625 -0.55,-1.5975 -1.78125,-1.5975 l -29.035,0 c -1.12875,0 -1.73375,0.49625 -1.73375,1.58125 l 0,29.08625 c 0,0 -14.55125,3.5125 -15.535,3.79625 -0.97875,0.285 -1.7,1.18875 -1.7,2.26625 l 0,18.2775 c 0,1.315 1.04875,2.375 2.3475,2.375 l 14.8875,0 0,43.97375 c 0,32.66125 22.91,35.86875 38.36875,35.86875 7.06375,0 15.51375,-2.2675 16.90875,-2.7825 0.84375,-0.31 1.335,-1.18375 1.335,-2.13125 l 0.0225,-20.1075 c 0,-1.31125 -1.1075,-2.37375 -2.355,-2.37375 -1.24125,0 -4.4175,0.50625 -7.6875,0.50625 -10.465,0 -14.01125,-4.86625 -14.01125,-11.165 0,-6.29375 -10e-4,-41.78875 -10e-4,-41.78875 l 21.3075,0 c 1.29875,0 2.35125,-1.06 2.35125,-2.375 l 0,-22.89375 c 0,-1.3125 -1.0525,-2.36875 -2.35125,-2.36875"
         style="fill:#ffffff;fill-opacity:1;fill-rule:nonzero;stroke:none"
         id="path3042" />
    </g>
  </g>
</svg>

<?xml version="1.0" encoding="UTF-8" standalone="no"?>
<!-- Created with Inkscape (http://www.inkscape.org/) -->

<svg
   xmlns="http://www.w3.org/2000/svg"
   version="1.1"
   width="103"
   height="28">

  <g
     transform="translate(-289.31188,-322.04585)"
     >
    <g
       transform="matrix(0.17247486,0,0,0.17247486,239.41285,289.67174)"
       >
      <path
         d="M 404.93313,257.1871 354.48813,257.1871 C 353.18688,257.1871 352.13063,258.24335 352.13063,259.54585 L 352.13063,284.20835 C 352.13063,285.5096 353.18688,286.5696 354.48813,286.5696 L 374.16688,286.5696 374.16688,317.2121 C 374.16688,317.2121 369.74813,318.71835 357.53188,318.71835 343.11938,318.71835 322.98563,313.4521 322.98563,269.17835 322.98563,224.8971 343.95063,219.07085 363.63313,219.07085 380.67063,219.07085 388.01063,222.0696 392.68063,223.51585 394.14813,223.9646 395.50563,222.50335 395.50563,221.2021 L 401.13313,197.3721 C 401.13313,196.7621 400.92688,196.02835 400.23188,195.53085 398.33563,194.1771 386.76438,187.70335 357.53188,187.70335 323.85563,187.70335 289.31188,202.03085 289.31188,270.90585 289.31188,339.7821 328.86188,350.04585 362.18938,350.04585 389.78438,350.04585 406.52438,338.2546 406.52438,338.2546 407.21438,337.87335 407.28938,336.90835 407.28938,336.4671 L 407.28938,259.54585 C 407.28938,258.24335 406.23438,257.1871 404.93313,257.1871"

          />
      <path
         d="M 664.90501,195.95535 C 664.90501,194.64285 663.86501,193.5841 662.56376,193.5841 L 634.16001,193.5841 C 632.86251,193.5841 631.80751,194.64285 631.80751,195.95535 631.80751,195.96135 631.81551,250.8466 631.81551,250.8466 L 587.54176,250.8466 587.54176,195.95535 C 587.54176,194.64285 586.49676,193.5841 585.19801,193.5841 L 556.79676,193.5841 C 555.50426,193.5841 554.45051,194.64285 554.45051,195.95535 L 554.45051,344.5841 C 554.45051,345.89535 555.50426,346.96285 556.79676,346.96285 L 585.19801,346.96285 C 586.49676,346.96285 587.54176,345.89535 587.54176,344.5841 L 587.54176,281.01035 631.81551,281.01035 C 631.81551,281.01035 631.73921,344.5791 631.73921,344.5841 631.73921,345.89535 632.79296,346.96285 634.09171,346.96285 L 662.56171,346.96285 C 663.86296,346.96285 664.90296,345.89535 664.90546,344.5841 L 664.90546,195.95535 z"

          />
      <path
         d="M 458.53175,215.4586 C 458.53175,205.2311 450.33175,196.96735 440.2155,196.96735 430.10925,196.96735 421.903,205.2311 421.903,215.4586 421.903,225.6761 430.10925,233.9636 440.2155,233.9636 450.33175,233.9636 458.53175,225.6761 458.53175,215.4586"

          />
      <path
         d="M 456.5005,313.23197 456.5005,244.62447 C 456.5005,243.32197 455.44925,242.25697 454.1505,242.25697 L 425.83675,242.25697 C 424.538,242.25697 423.3755,243.59697 423.3755,244.89822 L 423.3755,343.19322 C 423.3755,346.08072 425.1755,346.94072 427.5055,346.94072 L 453.0155,346.94072 C 455.81425,346.94072 456.5005,345.56572 456.5005,343.14697 L 456.5005,313.23197 z"

          />
      <path
         d="M 772.85188,242.4801 744.66563,242.4801 C 743.37313,242.4801 742.32063,243.54635 742.32063,244.85635 L 742.32063,317.73385 C 742.32063,317.73385 735.16063,322.97385 724.99688,322.97385 714.83438,322.97385 712.13688,318.36135 712.13688,308.4101 L 712.13688,244.85635 C 712.13688,243.54635 711.08688,242.4801 709.79313,242.4801 L 681.18688,242.4801 C 679.89563,242.4801 678.83813,243.54635 678.83813,244.85635 L 678.83813,313.2226 C 678.83813,342.7801 695.31188,350.01135 717.97438,350.01135 736.56563,350.01135 751.55563,339.74135 751.55563,339.74135 751.55563,339.74135 752.26938,345.15385 752.59188,345.7951 752.91563,346.4351 753.75688,347.0826 754.66563,347.0826 L 772.86438,347.0013 C 774.15563,347.0013 775.21313,345.93505 775.21313,344.6288 L 775.20413,244.8563 C 775.20413,243.5463 774.15038,242.48005 772.85163,242.48005"

          />
      <path
         d="M 838.771,322.88285 C 828.99475,322.58535 822.3635,318.1491 822.3635,318.1491 L 822.3635,271.0816 C 822.3635,271.0816 828.90475,267.0716 836.931,266.3541 847.081,265.44535 856.86225,268.5116 856.86225,292.7241 856.86225,318.2566 852.44725,323.29535 838.771,322.88285 M 849.8885,239.1416 C 833.87975,239.1416 822.991,246.2841 822.991,246.2841 L 822.991,195.95535 C 822.991,194.64285 821.94225,193.5841 820.64725,193.5841 L 792.1635,193.5841 C 790.8685,193.5841 789.816,194.64285 789.816,195.95535 L 789.816,344.5841 C 789.816,345.89535 790.8685,346.96285 792.16725,346.96285 L 811.9285,346.96285 C 812.8185,346.96285 813.49225,346.50285 813.991,345.70035 814.481,344.9016 815.191,338.8466 815.191,338.8466 815.191,338.8466 826.83725,349.88535 848.88725,349.88535 874.77225,349.88535 889.61725,336.75535 889.61725,290.9416 889.61725,245.12785 865.9085,239.1416 849.8885,239.1416"

          />
      <path
         d="M 538.13376,242.24322 516.82751,242.24322 C 516.82751,242.24322 516.79631,214.10197 516.79631,214.09572 516.79631,213.02947 516.24631,212.49822 515.01506,212.49822 L 485.98006,212.49822 C 484.85131,212.49822 484.24631,212.99447 484.24631,214.07947 L 484.24631,243.16572 C 484.24631,243.16572 469.69506,246.67822 468.71131,246.96197 467.73256,247.24697 467.01131,248.15072 467.01131,249.22822 L 467.01131,267.50572 C 467.01131,268.82072 468.06006,269.88072 469.35881,269.88072 L 484.24631,269.88072 484.24631,313.85447 C 484.24631,346.51572 507.15631,349.72322 522.61506,349.72322 529.67881,349.72322 538.12881,347.45572 539.52381,346.94072 540.36756,346.63072 540.85881,345.75697 540.85881,344.80947 L 540.88131,324.70197 C 540.88131,323.39072 539.77381,322.32822 538.52631,322.32822 537.28506,322.32822 534.10881,322.83447 530.83881,322.83447 520.37381,322.83447 516.82756,317.96822 516.82756,311.66947 516.82756,305.37572 516.82656,269.88072 516.82656,269.88072 L 538.13406,269.88072 C 539.43281,269.88072 540.48531,268.82072 540.48531,267.50572 L 540.48531,244.61197 C 540.48531,243.29947 539.43281,242.24322 538.13406,242.24322"

          />
    </g>
  </g>
</svg>
